source/Office/upload-picture.svg

<svg width="48" height="48" viewBox="0 0 48 48" fill="none" xmlns="http://www.w3.org/2000/svg">
<path d="M44 24C44 22.8954 43.1046 22 42 22C40.8954 22 40 22.8954 40 24H44ZM24 8C25.1046 8 26 7.10457 26 6C26 4.89543 25.1046 4 24 4V8ZM39 40H9V44H39V40ZM8 39V9H4V39H8ZM40 24V39H44V24H40ZM9 8H24V4H9V8ZM9 40C8.44772 40 8 39.5523 8 39H4C4 41.7614 6.23857 44 9 44V40ZM39 44C41.7614 44 44 41.7614 44 39H40C40 39.5523 39.5523 40 39 40V44ZM8 9C8 8.44772 8.44771 8 9 8V4C6.23858 4 4 6.23857 4 9H8Z" fill="black"/>
<path d="M6 35L16.6931 25.198C17.4389 24.5143 18.5779 24.4953 19.3461 25.1538L32 36" stroke="black" stroke-width="4" stroke-linecap="round" stroke-linejoin="round"/>
<path d="M28 31L32.7735 26.2265C33.4772 25.5228 34.5914 25.4436 35.3877 26.0408L42 31" stroke="black" stroke-width="4" stroke-linecap="round" stroke-linejoin="round"/>
<path d="M37 18L37 6" stroke="black" stroke-width="4" stroke-linecap="round" stroke-linejoin="round"/>
<path d="M32 11L37 6L42 11" stroke="black" stroke-width="4" stroke-linecap="round" stroke-linejoin="round"/>
</svg>

<svg width="48" height="48" viewBox="0 0 48 48" fill="none" xmlns="http://www.w3.org/2000/svg">
  <g>
    <path d="M6,35l10.7-9.8c.7-.7,1.9-.7,2.7,0l12.7,10.8" stroke="black" stroke-linecap="round" stroke-linejoin="round" stroke-width="4"/>
    <path d="M28,31l4.8-4.8c.7-.7,1.8-.8,2.6-.2l6.6,5" stroke="black" stroke-linecap="round" stroke-linejoin="round" stroke-width="4"/>
    <path d="M37,18V6" stroke="black" stroke-linecap="round" stroke-linejoin="round" stroke-width="4"/>
    <path d="M32,11l5-5,5,5" stroke="black" stroke-linecap="round" stroke-linejoin="round" stroke-width="4"/>
  </g>
  <path d="M24,6H8.7c-1.5,0-2.7,1.2-2.7,2.7v30.6c0,1.5,1.2,2.7,2.7,2.7h30.6c1.5,0,2.7-1.2,2.7-2.7v-13.3" stroke="black" stroke-linecap="round" stroke-linejoin="round" stroke-width="4"/>
</svg>
